src/pos-icons/wall-sconce-round-variant.svg

<svg height="24" viewBox="0 0 24 24" width="24" xmlns="http://www.w3.org/2000/svg"><path d="m11 5v3h2v-3zm-6.09 2.5-1.41 1.41 1.77 1.77 1.41-1.41zm14.18 0-1.77 1.77 1.41 1.41 1.77-1.77zm-15.09 4.5c0 2.86 1.5 5.5 4 6.93s5.5 1.43 8 0 4-4.07 4-6.93z"/></svg>

<?xml version="1.0" encoding="UTF-8"?><!DOCTYPE svg PUBLIC "-//W3C//DTD SVG 1.1//EN" "http://www.w3.org/Graphics/SVG/1.1/DTD/svg11.dtd"><svg xmlns="http://www.w3.org/2000/svg" xmlns:xlink="http://www.w3.org/1999/xlink" version="1.1" id="mdi-wall-sconce-round-variant" width="24" height="24" viewBox="0 0 24 24"><path d="M11 5V8H13V5H11M4.91 7.5L3.5 8.91L5.27 10.68L6.68 9.27L4.91 7.5M19.09 7.5L17.32 9.27L18.73 10.68L20.5 8.91L19.09 7.5M4 12C4 14.86 5.5 17.5 8 18.93S13.5 20.36 16 18.93 20 14.86 20 12H4Z" /></svg>
